src/lib/packages/icons/src/assets/line/package-star.svg

<svg width="24" height="24" viewBox="0 0 24 24" fill="none" xmlns="http://www.w3.org/2000/svg">
<path d="M21.413 8.71701L20.343 4.97C19.961 3.633 19.566 2.25 16.738 2.25H7.26294C4.43494 2.25 4.03896 3.633 3.65796 4.97L2.58801 8.71701C2.36401 9.49901 2.25098 10.308 2.25098 11.121V18C2.25098 20.418 3.58298 21.75 6.00098 21.75H18.001C20.419 21.75 21.751 20.418 21.751 18V11.12C21.75 10.307 21.637 9.49901 21.413 8.71701ZM18.901 5.38199L19.9709 9.129C19.9819 9.169 19.9859 9.21101 19.9969 9.25101H12.75V3.75101H16.7371C18.4351 3.75001 18.552 4.16099 18.901 5.38199ZM5.099 5.38199C5.449 4.16099 5.56594 3.75 7.26294 3.75H11.25V9.25H4.00305C4.01405 9.21 4.01705 9.168 4.02905 9.129L5.099 5.38199ZM20.25 18C20.25 19.577 19.577 20.25 18 20.25H6C4.423 20.25 3.75 19.577 3.75 18V11.12C3.75 10.996 3.769 10.873 3.776 10.75H20.224C20.23 10.874 20.25 10.996 20.25 11.12V18ZM15.271 13.505L13.712 13.283L13.043 11.955C12.844 11.56 12.443 11.315 11.999 11.315C11.555 11.315 11.154 11.56 10.955 11.955L10.286 13.283L8.72595 13.505C8.28995 13.567 7.936 13.865 7.802 14.283C7.67 14.697 7.783 15.141 8.099 15.443L9.21594 16.509L8.96301 17.957C8.88601 18.392 9.06097 18.825 9.41797 19.087C9.77697 19.352 10.2499 19.39 10.6479 19.185L11.998 18.491L13.349 19.186C13.519 19.274 13.703 19.317 13.886 19.317C14.131 19.317 14.373 19.24 14.579 19.088C14.935 18.826 15.11 18.393 15.033 17.959L14.78 16.51L15.897 15.444C16.212 15.143 16.326 14.699 16.194 14.285C16.062 13.866 15.708 13.568 15.271 13.505ZM13.603 15.561C13.331 15.822 13.207 16.199 13.271 16.571L13.441 17.545L12.525 17.074C12.361 16.99 12.18 16.947 12.001 16.947C11.822 16.947 11.642 16.989 11.478 17.073L10.561 17.544L10.7321 16.569C10.7951 16.198 10.6709 15.821 10.3979 15.56L9.68994 14.884L10.684 14.742C11.052 14.69 11.372 14.462 11.542 14.128L12.001 13.217L12.462 14.131C12.631 14.461 12.95 14.689 13.318 14.741L14.312 14.883L13.603 15.561Z" fill="currentColor"/>
</svg>

<svg xmlns="http://www.w3.org/2000/svg" width="24" height="24" fill="none"><path fill="currentColor" d="m21.413 8.717-1.07-3.747c-.382-1.337-.777-2.72-3.605-2.72H7.263c-2.828 0-3.224 1.383-3.605 2.72l-1.07 3.747a8.729 8.729 0 0 0-.337 2.404V18c0 2.418 1.332 3.75 3.75 3.75h12c2.418 0 3.75-1.332 3.75-3.75v-6.88a8.76 8.76 0 0 0-.338-2.403Zm-2.512-3.335 1.07 3.747c.01.04.015.082.026.122H12.75v-5.5h3.987c1.698-.001 1.815.41 2.164 1.631Zm-13.802 0c.35-1.221.467-1.632 2.164-1.632h3.987v5.5H4.003c.011-.04.014-.082.026-.121L5.1 5.382ZM20.25 18c0 1.577-.673 2.25-2.25 2.25H6c-1.577 0-2.25-.673-2.25-2.25v-6.88c0-.124.019-.247.026-.37h16.448c.006.124.026.246.026.37V18Zm-4.979-4.495-1.559-.222-.669-1.328c-.199-.395-.6-.64-1.044-.64-.444 0-.845.245-1.044.64l-.669 1.328-1.56.222a1.13 1.13 0 0 0-.627 1.938l1.117 1.066-.253 1.448c-.077.435.098.868.455 1.13.359.265.832.303 1.23.098l1.35-.694 1.351.695a1.166 1.166 0 0 0 1.23-.098c.356-.262.531-.695.454-1.129l-.253-1.449 1.117-1.066c.315-.301.429-.745.297-1.159a1.126 1.126 0 0 0-.923-.78Zm-1.668 2.056a1.131 1.131 0 0 0-.332 1.01l.17.974-.916-.471a1.154 1.154 0 0 0-1.047-.001l-.917.471.171-.975a1.131 1.131 0 0 0-.334-1.009l-.708-.676.994-.142c.368-.052.688-.28.858-.614l.459-.911.461.914c.169.33.488.558.856.61l.994.142-.709.678Z"/></svg>
